X:1
T:Title
%%score { ( 1 2 ) | ( 3 4 ) }
L:1/8
Q:1/4=100
M:4/4
K:Ab
V:1 treble nm="Grand Piano"
V:2 treble 
V:3 bass 
V:4 bass 
V:1
 ccBB A2 F2 | [DA]4[K:bass] [DG]4 | ddcc B2 G2 | [CE-]4 E2 z2 | ccBB A2 F2 | G4 [EB]4 | %6
w: Robert~Harkness * * * * *||||||
 .B2 z2 [B,=DG]2 [A,DF]2 |[M:9/8] B6- B z z |[M:4/4] .c2 .B2 z4 | [DA]4 G4 | ddcc B2 E2 | c6 z2 | %12
w: ||||||
 ccBB A2 [_GA]2 | [_Ge]4 [Fd]4 | ccBA z A, B2 |[M:9/8] A2- [DA]- [DA-] [CA]2- [CA] z z |] %16
w: ||||
V:2
 C4 C4 | z2[K:bass] E,,2 z2 E,,2 | x8 | A,2 _G,2 [=G,D]4 | C4 C4 | x8 | =D4 z4 | %7
[M:9/8] z2 =D- D _D2- D z z |[M:4/4] C-[Cc]D-[DB] [CA]2 [CF]2 | x8 | x8 | x8 | x8 | x8 | z4 E2 z2 | %15
[M:9/8] .[A,C]3 z3 z3 |] %16
V:3
 E,4 E,4 | E,4 E,4 | [E,E]2- [E,A,E]2 [E,D]2- [E,B,D]2 | A,,2 =A,,2 B,,2 E,,2 | E,4 E,4 | %5
 [B,,E,B,]4 [B,,G,]4 | z[K:treble] =dcB[K:bass] B,,2 B,,2 | %7
[M:9/8] [E,G,E]2 [F,A,]- [F,A,] [E,G,]2- [E,G,] z z |[M:4/4] z2 .F,2 z4 | [B,,E,]4 [E,B,D]4 | %10
 [E,G,E][E,G,E][E,A,E][E,A,E] [E,G,E]2 [G,D]2 | [A,CE]6 z2 | %12
 [A,E][A,E][G,C=E][G,CE] [F,CF]2 [E,C]2 | [C,A,]4 [D,A,]4 | %14
 [E,A,E][E,A,E][E,G,D][E,A,C] .[E,B,D]2 [E,G,D]2 |[M:9/8] z G,F,- F, E,2- E, z z |] %16
V:4
 A,,2 E,,2 A,,2 E,,2 | B,,2 z2 B,,2 z2 | G,2 z2 G,2 z2 | x8 | A,,2 E,,2 A,,2 E,,2 | x8 | %6
 [B,,F,]4[K:treble][K:bass] z4 |[M:9/8] x9 |[M:4/4] [A,,E,]2 A,,-[A,,G,] [A,,A,]2 [A,,A,]2 | x8 | %10
 x8 | x8 | x8 | x8 | x8 |[M:9/8] A,,6- A,, z z |] %16

